X:1
T:Title
%%score { ( 1 3 ) | ( 2 4 ) }
L:1/8
Q:1/4=95
M:6/8
K:Eb
V:1 treble nm="Grand Piano"
V:3 treble 
V:2 bass 
V:4 bass 
V:1
 G_G=G EFG | B2 B c B2 | [Ge][Gd][Gc] [Ad]3 | [DFA][FAd][DAc] [EGB]3 | G_G=G EFG | B2 B c B2 | %6
w: Chas.~H.~Gabriel * * * * *||||||
 dcB c2 d | [DB]6 | [GB][Gc][Gd] [Ge][Gd][Gc] | [Ad]2 [Ad] [Ad] [DFA]2 | %10
w: ||||
 [DFA][DGB][DAc] [FAd]2 [DAc] | [EGB]6 | [Ge][Gd][Ac] [GB]GF | z A,E c c2 | %14
w: ||||
 [CE][CD][CE] [EB]2 [DB] |[M:9/16] B4- B/ |[M:9/8] GFG [FA]-[DF-A-][DF-A-] [DFA]3 | z3 [EG]6 | %18
w: ||||
 Bcd [Ge]6 | e3 z3 z3 |[M:3/4] z6 | [GB]G .F2 A,E | c c2 [CE] [CD][CE] | %23
w: |||||
[M:25/16] [EB]2 [DB] [EB]6 z3 z/ |] %24
w: |
V:2
 [E,B,E][E,=A,E][E,B,E] [E,G,B,][E,_A,B,][E,B,E] | [E,G,E]2 [E,G,E] [E,A,E] [E,G,E]2 | %2
 [E,B,][E,B,][E,B,] [F,B,]3 | B,B,B,, E,3 | [E,B,E][E,=A,E][E,B,E] [E,G,][E,_A,E][E,B,E] | %5
 [E,G,E]2 [E,G,E] [E,A,E] [E,G,E]2 | [F,B,F][F,=A,E][F,B,D] [F,A,E]2 [F,A,F] | [B,,B,]6 | %8
 [E,B,][E,B,][E,B,] [E,B,][E,B,][E,B,] | [F,B,]2 [F,B,] [F,B,] B,2 | B,,B,,B,, B,,2 B,, | E,6 | %12
 [E,B,][E,B,][E,C] [E,E][E,B,E][D,A,B,] | .B,3 z3 | [=A,,_G,][A,,G,][A,,G,] [B,,=G,]2 [B,,A,] | %15
[M:9/16] [E,G,E]4- [E,G,E]/ |[M:9/8] EDE B,,B,,B,, .B,,3 | FAG[K:bass] E,E,E, .E,3 | %18
 [B,DA][B,CA][B,A][K:bass] [E,B,]6 | [F,=A,F]2 C B,,6- |[M:3/4] B,,3 [E,B,] [E,B,][E,C] | %21
 z2 z .B,3 | [A,E] [A,E]2 [=A,,_G,] [A,,G,][A,,G,] |[M:25/16] [B,,G,]2 [B,,A,] [E,G,]6 z3 z/ |] %24
V:3
 x6 | x6 | x6 | x6 | x6 | x6 | x6 | x6 | x6 | x6 | x6 | x6 | x6 | .E3 z3 | x6 |[M:9/16] x9/2 | %16
[M:9/8] z3 .D3 z3 | AcB B,B,B, .B,3 | x9 | z2 =A [F_Ad]6- |[M:3/4] [FAd]3 [Ge] [Gd][Ac] | %21
 z2 z .E3 | x6 |[M:25/16] x25/2 |] %24
V:4
 x6 | x6 | x6 | x6 | x6 | x6 | x6 | x6 | x6 | x6 | x6 | x6 | x6 | [E,G,]F,[G,B,] [A,E] [A,E]2 | %14
 x6 |[M:9/16] x9/2 |[M:9/8] x9 | x3[K:bass] x6 | x3[K:bass] x6 | x9 |[M:3/4] x6 | %21
 [E,E][E,B,E] [D,A,B,][E,G,] F,[G,B,] | x6 |[M:25/16] x25/2 |] %24

